!!!COM: Palestrina, Giovanni Perluigi da
!!!OPR: Missa In majoribus duplicibus
!!!OMD: Credo
!!!OTL: Et unam sanctam
**kern	**kern	**kern	**kern
*Ibass	*Itenor	*Icalto	*Icant
!Bassus	!Tenor	!Altus	!Cantus
*clefF4	*clefGv2	*clefG2	*clefG2
*k[]	*k[]	*k[]	*k[]
*?:X	*?:X	*?:X	*?:X
*M4/2	*M4/2	*M4/2	*M4/2
=217	=217	=217	=217
0D	0d	1f#	1dd
.	.	2r	2r
.	.	2d	2dd
=218	=218	=218	=218
0r	2r	2e	2g
.	2d	2f#	2dd
.	2G	1g	1dd
.	2B	.	.
=219	=219	=219	=219
0r	2A	2a	2cc
.	4G	2b	2dd
.	4G	.	.
.	2A	2a	2cc
.	2G	2b	2dd
=220	=220	=220	=220
2r	2c	1cc	1ee
2C	2e	.	.
2F	2c	1r	1r
2G	2e	.	.
=221	=221	=221	=221
2.A	2.f	2r	1r
.	.	2c	.
4G	4e	.	.
2F	2d	2f	2r
2E	2c	2g	2ee
=222	=222	=222	=222
2F	2A	2a	2cc
2D	2B	2f	2dd
1C	1c	4e	2.ee
.	.	4f	.
.	.	4g	.
.	.	4e	4ee
=223	=223	=223	=223
0r	0r	2f	2dd
.	.	2e	2cc
.	.	2f	2a
.	.	2d	2b
=224	=224	=224	=224
1r	2r	2c	0cc
.	2e	2A	.
2r	2.f	2.a	.
2A	.	.	.
.	4e	4g	.
=225	=225	=225	=225
2.B-	1.d	1f	0r
4A	.	.	.
2G	.	1r	.
2G	2e	.	.
=226	=226	=226	=226
2F	2d	1r	2r
2E	2c	.	2ee
1D	[1d	1a	2.ff
.	.	.	4ee
=227	=227	=227	=227
1.G	2d]	2.b-	1.dd
.	2G	.	.
.	.	4a	.
.	1r	[1g	.
2c	.	.	2ee
=228	=228	=228	=228
2B	0r	2g]	2dd
2A	.	2a	2cc
4.B	.	2g	1dd
8c	.	.	.
2d	.	2f#	.
=229	=229	=229	=229
2G	1d	1.g	1b
2G	.	.	.
2E	1e	.	1r
[2A	.	2c	.
=230	=230	=230	=230
2A]	2.f	0r	0r
2F	.	.	.
.	4e	.	.
2G	2d	.	.
2A	2c	.	.
=231	=231	=231	=231
2F#	2d	2r	1dd
2G	2B	1g	.
1E	1c#	.	1ee
.	.	2e	.
=232	=232	=232	=232
1D	1d	2a	2.ff
.	.	2f	.
.	.	.	4ee
1r	1r	2g	2dd
.	.	2a	2cc
=233	=233	=233	=233
0r	0r	2f#	2dd
.	.	2g	2b
.	.	1e	1cc#
=234	=234	=234	=234
0r	1G	2d	4dd
.	.	.	4cc
.	.	1g	4b
.	.	.	8a
.	.	.	8g
.	1d	.	[1a
.	.	4f#	.
.	.	4e	.
=235	=235	=235	=235
1r	1d	2f#	1a]
.	.	2f#	.
1C	1e	[1g	2r
.	.	.	[2cc
=236	=236	=236	=236
1G	2.d	1g]	2cc]
.	.	.	4b
.	4c	.	4a
1G	2d	2.g	2b
.	4e	.	2b
.	4d	4f	.
=237	=237	=237	=237
1.A	4c	4e	1.cc
.	4B	4d	.
.	4c	2.c	.
.	4B	.	.
.	2A	.	.
.	.	4d	.
2G	2B	[2e	2b
=238	=238	=238	=238
1F	2c	4e]	1a
.	.	8d	.
.	.	8c	.
.	2A	2d	.
1E	1B	1e	1g#
=239	=239	=239	=239
1.D	1.d	1.f	1r
.	.	.	[1a
2C#	2e	2e	.
=240	=240	=240	=240
2D	2f	2d	2a]
2D	2f	2d	2b
1A	1e	2c	1cc
.	.	2A	.
=241	=241	=241	=241
1F	1f	1a	1cc
1G	1d	1g	1b
=242	=242	=242	=242
2.A	0c	1e	2a
.	.	.	2ee
4G	.	.	.
4F	.	1a	2ff
4G	.	.	.
4A	.	.	[2ee
4B	.	.	.
=243	=243	=243	=243
1c	1e	[0g	4ee]
.	.	.	4dd
.	.	.	1cc
1G	1d	.	.
.	.	.	2b
=244	=244	=244	=244
1c	2c	1g]	0cc
.	2e	.	.
2r	1f	2r	.
2A	.	2c	.
=245	=245	=245	=245
1B	1.g	1d	0r
2.c	.	2.e	.
.	2g	.	.
4B	.	4d	.
=246	=246	=246	=246
2A	2.f	4c	0r
.	.	4B	.
2F	.	2A	.
.	4e	.	.
2G	2d	2B	.
2A	2c	[2A	.
=247	=247	=247	=247
2F	2d	2A]	0r
2E	2.e	2G	.
2F	.	2A	.
.	4d	.	.
4E	[2d	2B	.
4D	.	.	.
=248	=248	=248	=248
1E	2d]	1G	1ee
.	2c#	.	.
1D	[1d	2A	1ff#
.	.	2a	.
=249	=249	=249	=249
1G	1d]	1b	1.gg
1c	1e	2.cc	.
.	.	.	2gg
.	.	4b	.
=250	=250	=250	=250
2.d	2f	2a	2.ff
.	1d	2f	.
4c	.	.	4ee
2B	.	2g	2dd
2A	2e	2a	2cc
=251	=251	=251	=251
2d	2d	2f	2dd
2c#	2A	2e	2.ee
2d	2a	2f	.
.	.	.	4dd
2B-	2g	4e	[2dd
.	.	4d	.
=252	=252	=252	=252
0A	2.a	1e	2dd]
.	.	.	2cc#
.	4g	.	.
.	2f	1d	1dd
.	2d	.	.
=253	=253	=253	=253
1r	4e	2r	1g
.	4f	.	.
.	4g	2g	.
.	4e	.	.
1r	2f	2a	1dd
.	2g	2b	.
=254	=254	=254	=254
1r	4c	2cc	1ee
.	4d	.	.
.	4e	4b	.
.	4f	4a	.
1r	2g	2b	[1dd
.	4d	4a	.
.	4e	4g	.
=255	=255	=255	=255
1r	4f	2a	2dd]
.	4g	.	.
.	2.a	2f	2cc
1r	.	1g	2.b
.	4g	.	.
.	[2g	.	.
.	.	.	8a
.	.	.	8g
=256	=256	=256	=256
1r	2g]	2d	1a
.	2f#	2d	.
2r	1g	4B	1g
.	.	4c	.
2G	.	4d	.
.	.	4B	.
=257	=257	=257	=257
4E	1G	2c	2r
4F	.	.	.
4G	.	2B	2g
4E	.	.	.
2F	1d	2A	2a
2G	.	[2G	2b
=258	=258	=258	=258
1C	1e	2G]	1cc
.	.	2A	.
2.G	[1d	4B	1b
.	.	4c	.
.	.	4d	.
4F	.	4e	.
=259	=259	=259	=259
4D	2d]	4f	2r
4E	.	4g	.
2F	2c	2.a	2a
2G	2B	.	2b
.	.	4g	.
2E	4A	[2g	2cc
.	4G	.	.
=260	=260	=260	=260
1D	1A	2g]	1dd
.	.	2f#	.
[1G	[1G	[1g	[1b
=261	=261	=261	=261
1G]	1G]	1g]	1b]
==	==	==	==
*-	*-	*-	*-
!!!CDT: 1525/^1526/-1594/2/2
!!!OCY: Italia
!!!AGN: Mass (Paraphrase)
!!!AST: renaissance, vocal
!!!ASW: Gregorian Mass
!!!PWK: Masses, Book 7
!!!RNB: Cadence finals: E,C,G,D,F
!!!YOR: Le Opere Complete, v. 23, p. 149
!!!YOO: Rome, Italy: Fratelli Scalera
!!!END: 1992//
!!!EED: John Miller
!!!YEC: Copyright 2000, John Miller
!!!YEN: United States of America
!!!YEM: Rights to all derivative electronic formats reserved.
!!!YEM: Refer to licensing agreement for further details.
!!!YEM: This file must be accompanied by the licensing agreement.
!!!YEM: A copy of the licensing agreement may be found at http://www.music-cog.ohio-state.edu/HumdrumDatabases/Palestrina/license.txt
!!!EMD: converted to Humdrum by Bret Aarden
